X: 1
T: Saint Barnard's Waltz  [C]
T: Chorus only
R: waltz
Z: 1997 John Chambers <jc:trillian.mit.edu>
M: 3/4
L: 1/4
K: F
"^Intro"[|]\
DE | "Bb"FED | FED | "F"CFA | "D7"ccB | "G7"A3 | "C7"G3 | "F  ,"F C/=B,/ C/D/ | C/C/ D/E/ F/G/ ||
|: "F"A3 | F3 | C2^C | D2C | A3 | c3 | "Gm"B3- | B3 |
w: Come, let's dance to-night Saint Bar-nard's Waltz.
| "C7"B3 | G3 | E3 | D3 | CEG | c=B_B | "F"A^GA | "C7"GEC |
w: Let's go 'round dear, just like they did in the old days that used to be.
| "F"A3 | F3 | C2^C | D2C | A3 | c2^c | "Bb"d3- | dDE |
w: Dreams of yes-ter-day; that old time re-frain, I'm the
| "Bb"FED | FED | "F"CFA | "D7"ccB | "G7"A3 | "C7"G3 | "F"HF3- | F"(C7)"G^G :|
w: hero so tall, you're the the belle of the ball, at Saint Bar-nard's Waltz.

